src/components/00-materials/images-raw/P&C/Broke Robot.svg

<svg xmlns="http://www.w3.org/2000/svg" viewBox="0 0 70.99 69.05"><defs><style>.cls-1{fill:none;stroke:#00008f;stroke-linecap:round;stroke-linejoin:round;stroke-width:2px}</style></defs><g id="Layer_2" data-name="Layer 2"><g id="icons"><path class="cls-1" d="M47.43 48.34H20.52c-1.92 0-3.74-1.08-4.07-2.47l-5.12-21.38c-.58-2.42 1.12-4.49 3.81-4.49h37.67c2.69 0 4.39 2.06 3.81 4.48L51.5 45.87c-.33 1.39-2.15 2.47-4.07 2.47zM62.86 67.1a3.44 3.44 0 1 1 2-4.44 3.44 3.44 0 0 1-2 4.44zM64.58 65.93l5.41-4.25M3.82 31a3.44 3.44 0 1 0 4.86 0 3.44 3.44 0 0 0-4.86 0zM3.15 31.91L1 39.15M5.6 29.87l6.08-3.21M29.28 48.34h9.39v7.39h-9.39zM26.51 64.77a7.51 7.51 0 0 1 2.77.5V52.65h-5.54v12.62a7.51 7.51 0 0 1 2.77-.5z"/><path class="cls-1" d="M26.51 64.77c-2.79 0-5.07 1.36-5.23 3.09v.19h10.46c0-1.81-2.34-3.28-5.23-3.28zM41.44 64.77a7.51 7.51 0 0 1 2.77.5V52.65h-5.54v12.62a7.55 7.55 0 0 1 2.77-.5z"/><path class="cls-1" d="M41.44 64.77c-2.79 0-5.06 1.36-5.22 3.09a1.21 1.21 0 0 0 0 .19h10.46c0-1.81-2.35-3.28-5.24-3.28zM15.58 20C15.58 9.85 23.82 1 34 1s18.37 8.85 18.37 19"/><path class="cls-1" d="M24.74 9.58h18.48v4.93H24.74z"/></g></g></svg>

<svg xmlns="http://www.w3.org/2000/svg" viewBox="0 0 70.99 69.05"><defs><style>.cls-1{fill:none;stroke:#00008f;stroke-linecap:round;stroke-linejoin:round;stroke-width:2px;}</style></defs><title>Broke Robot</title><g id="Layer_2" data-name="Layer 2"><g id="icons"><path class="cls-1" d="M47.43,48.34H20.52c-1.92,0-3.74-1.08-4.07-2.47L11.33,24.49C10.75,22.07,12.45,20,15.14,20H52.81c2.69,0,4.39,2.06,3.81,4.48L51.5,45.87C51.17,47.26,49.35,48.34,47.43,48.34Z"/><path class="cls-1" d="M62.86,67.1a3.44,3.44,0,1,1,2-4.44A3.44,3.44,0,0,1,62.86,67.1Z"/><line class="cls-1" x1="64.58" y1="65.93" x2="69.99" y2="61.68"/><path class="cls-1" d="M3.82,31a3.44,3.44,0,1,0,4.86,0A3.44,3.44,0,0,0,3.82,31Z"/><line class="cls-1" x1="3.15" y1="31.91" x2="1" y2="39.15"/><line class="cls-1" x1="5.6" y1="29.87" x2="11.68" y2="26.66"/><rect class="cls-1" x="29.28" y="48.34" width="9.39" height="7.39"/><path class="cls-1" d="M26.51,64.77a7.51,7.51,0,0,1,2.77.5V52.65H23.74V65.27A7.51,7.51,0,0,1,26.51,64.77Z"/><path class="cls-1" d="M26.51,64.77c-2.79,0-5.07,1.36-5.23,3.09,0,.06,0,.13,0,.19H31.74C31.74,66.24,29.4,64.77,26.51,64.77Z"/><path class="cls-1" d="M41.44,64.77a7.51,7.51,0,0,1,2.77.5V52.65H38.67V65.27A7.55,7.55,0,0,1,41.44,64.77Z"/><path class="cls-1" d="M41.44,64.77c-2.79,0-5.06,1.36-5.22,3.09a1.21,1.21,0,0,0,0,.19H46.68C46.68,66.24,44.33,64.77,41.44,64.77Z"/><path class="cls-1" d="M15.58,20C15.58,9.85,23.82,1,34,1S52.37,9.85,52.37,20"/><rect class="cls-1" x="24.74" y="9.58" width="18.48" height="4.93"/></g></g></svg>
